X: 8404
T: Cow's It Going
R: reel
M: 4/4
K: Eminor
|:B,EGE FEFA|BcBA GFED|CEGE FEDB,|A,DFD EDB,A,|
B,EGE FEFA|BcBA GFED|CEGE ^CEGE|1 DFAF GFED]:|2 DFAF GABd||
|:eBB/B/B efgf|eBfB gfed|BEcE dEcB|ADFD GDFD|
[1eBBB efgf|eccc efge|fddd fgaf|gfed efgf:|
[2GFEF GABG|AGFG ABef|gfed BAGB|AGFD E2 ED||

